X:342
T:Old Sport
C:
N:Transcribed by Tristan Scroggins Based on Texas Shorty's version from "Old Sport"
R:bluegrass
L:1/8
Q:1/4=180
M:4/4
K:A
AF | EG Ac BA ef | ec Ac BA FA | EG Ac BA ef | ec Ac B2 AF | EG Ac BA ef | ec Ac BA FA | 
A,C EG Ac af | ec BG A2 [A/G/]A/[AA] | [A2A2] Ac BA ef | ec Ac c/B/A FA | EG Ac BA af | 
ec Ac BA FA | EG Ac BA ef | ec Ac BA FA | A,C EG Ac af | ec BG A2 (3efg |: a2 ae fe cA | 
af ec BA FE | ag ae fe cB | Ab2c' b2 ab | c'a (3=c'^c'=c' a^c' ba | ec af ec BG | 
Ac eg ab af |1 ec BG A2 g/a/a :|2 ec BG A2 (3efg | ag ae fa ed | cB AG A2 e2 | 
ef ed (3=cBA FB | AF EC A,4 | 


